modules/entypo/icons/keyboard.svg

<svg height="1000px" width="1000px" xmlns="http://www.w3.org/2000/svg">
  <g>
    <path d="M930 200c18.667 0 35 7 49 21c14 14 21 30.333 21 49c0 0 0 460 0 460c0 20 -7 36.667 -21 50c-14 13.333 -30.333 20 -49 20c0 0 -860 0 -860 0c-18.667 0 -35 -6.667 -49 -20c-14 -13.333 -21 -30 -21 -50c0 0 0 -460 0 -460c0 -18.667 7 -35 21 -49c14 -14 30.333 -21 49 -21c0 0 860 0 860 0c0 0 0 0 0 0m-380 100c0 0 0 100 0 100c0 0 100 0 100 0c0 0 0 -100 0 -100c0 0 -100 0 -100 0c0 0 0 0 0 0m150 150c0 0 -100 0 -100 0c0 0 0 100 0 100c0 0 100 0 100 0c0 0 0 -100 0 -100c0 0 0 0 0 0m-300 -150c0 0 0 100 0 100c0 0 100 0 100 0c0 0 0 -100 0 -100c0 0 -100 0 -100 0c0 0 0 0 0 0m150 150c0 0 -100 0 -100 0c0 0 0 100 0 100c0 0 100 0 100 0c0 0 0 -100 0 -100c0 0 0 0 0 0m-300 -150c0 0 0 100 0 100c0 0 100 0 100 0c0 0 0 -100 0 -100c0 0 -100 0 -100 0c0 0 0 0 0 0m150 150c0 0 -100 0 -100 0c0 0 0 100 0 100c0 0 100 0 100 0c0 0 0 -100 0 -100c0 0 0 0 0 0m-300 -150c0 0 0 100 0 100c0 0 100 0 100 0c0 0 0 -100 0 -100c0 0 -100 0 -100 0c0 0 0 0 0 0m150 150c0 0 -100 0 -100 0c0 0 0 100 0 100c0 0 100 0 100 0c0 0 0 -100 0 -100c0 0 0 0 0 0m-50 250c0 0 0 -100 0 -100c0 0 -100 0 -100 0c0 0 0 100 0 100c0 0 100 0 100 0c0 0 0 0 0 0m550 0c0 0 0 -100 0 -100c0 0 -500 0 -500 0c0 0 0 100 0 100c0 0 500 0 500 0c0 0 0 0 0 0m150 0c0 0 0 -100 0 -100c0 0 -100 0 -100 0c0 0 0 100 0 100c0 0 100 0 100 0c0 0 0 0 0 0m-150 -150c0 0 100 0 100 0c0 0 0 -100 0 -100c0 0 -100 0 -100 0c0 0 0 100 0 100c0 0 0 0 0 0m150 -150c0 0 0 -100 0 -100c0 0 -200 0 -200 0c0 0 0 100 0 100c0 0 200 0 200 0c0 0 0 0 0 0" />
  </g>
</svg>

<svg height="1000" width="1000" xmlns="http://www.w3.org/2000/svg"><path d="M930 200c18.667 0 35 7 49 21s21 30.333 21 49v460c0 20-7 36.667-21 50-14 13.333-30.333 20-49 20H70c-18.667 0-35-6.667-49-20S0 750 0 730V270c0-18.667 7-35 21-49s30.333-21 49-21h860M550 300v100h100V300H550m150 150H600v100h100V450M400 300v100h100V300H400m150 150H450v100h100V450M250 300v100h100V300H250m150 150H300v100h100V450M100 300v100h100V300H100m150 150H150v100h100V450m-50 250V600H100v100h100m550 0V600H250v100h500m150 0V600H800v100h100M750 550h100V450H750v100m150-150V300H700v100h200"/></svg>
